X: 1963
T: Waltz to Woody Head
C:John Spencer, (1952-2015)
B: australian traditional tunes wiki
M:3/4
L:1/4
R: Waltz
Q: 1/4=100
K:G
V:1 
G/A/|"G"GG/A/ B/G/|"D"A2G/A/|"G"B d g|"C"e2g/e/|"G"dc B/G/|"D"A2G/A/|"Em"B>A G/F/|"C"E2 G/E/|
"G"DGB|"D"A2B/A/|"G"B/c/ d g|"C"e2g/e/|"G"dc B/G/|"D"A2F/G/|AFD|"Em"E2 G/A/|
"G"Bdg|"D"a2g/a/|"Em"b>a g/f/|"C"e2g/e/|"G"dB/c/ d/B/|"D"A>B c/A/|"G"BGB|"D"A2 B/c/|
"G"Bdg|"D"a2g/a/|"Em"b/a/ g/f/ e/d/|"C"e2g/e/|"G"dc B/G/|"D"A2F/G/|AFD|"Em"E2||
% abcbook-tune_id 6342d5beaa84e5568e2a04a4


% abcbook-boost 0
% abcbook-tablature 
% abcbook-transpose 
% abcbook-lastupdated 1665324490876
% abcbook-soundfonts 
% abcbook-repeats 1
% NFF Book 2018

